X: 168
M:6/8
L:1/8
Q:160
K:Gm
|: g|f d2 e2 c|d B2 c2 A|B G2 A F2|B3 B2 B|c A2 d2 A|^F D2 B c|d B2 c A2|G3 G3:|

